public/pieces/pixel/bP.svg

<svg shape-rendering="crispEdges" viewBox="0 -.5 16 16" xmlns="http://www.w3.org/2000/svg"><path d="m6 2h4m-5 1h1m4 0h1m-6 1h1m4 0h1m-6 1h1m4 0h1m-5 1h1m2 0h1m-5 1h1m4 0h1m-6 1h1m4 0h1m-5 1h1m2 0h1m-5 1h1m4 0h1m-7 1h1m6 0h1m-8 1h1m6 0h1m-8 1h8" stroke="#000"/><path d="m6 3h1m-1 4h1m-1 3h1m-2 1h1" stroke="#6d6d6d"/><path d="m7 3h2m-3 1h1m0 3h1m-2 4h1m-2 1h1" stroke="#494949"/><path d="m9 3h1m-1 1h1m-1 1h1m-2 1h1m0 1h1m-3 1h3m-2 1h1m0 1h1m0 1h1m-5 1h5" stroke="#151515"/><path d="m7 4h2m-3 1h3m-2 1h1m0 1h1m-3 1h1m0 1h1m-1 1h2m-2 1h3" stroke="#242424"/></svg>

<svg xmlns="http://www.w3.org/2000/svg" viewBox="0 -0.5 16 16" shape-rendering="crispEdges">
<metadata>Made with Pixels to Svg https://codepen.io/shshaw/pen/XbxvNj</metadata>
<path stroke="#000000" d="M6 2h4M5 3h1M10 3h1M5 4h1M10 4h1M5 5h1M10 5h1M6 6h1M9 6h1M5 7h1M10 7h1M5 8h1M10 8h1M6 9h1M9 9h1M5 10h1M10 10h1M4 11h1M11 11h1M4 12h1M11 12h1M4 13h8" />
<path stroke="#6d6d6d" d="M6 3h1M6 7h1M6 10h1M5 11h1" />
<path stroke="#494949" d="M7 3h2M6 4h1M7 7h1M6 11h1M5 12h1" />
<path stroke="#151515" d="M9 3h1M9 4h1M9 5h1M8 6h1M9 7h1M7 8h3M8 9h1M9 10h1M10 11h1M6 12h5" />
<path stroke="#242424" d="M7 4h2M6 5h3M7 6h1M8 7h1M6 8h1M7 9h1M7 10h2M7 11h3" />
</svg>
